X:1
T:[ID 6-66]
T:[ID 6-66]
T:Bezeichnung standardisiert: Menuett Menuet 5.
T:Urheber unbekannt Datum in der hier transkribierten schriftlichen Quelle: 1775
C:Urheber unbekannt
C:Datum in der hier transkribierten schriftlichen Quelle: 1775
L:1/8
M:3/4
K:A
V:1 treble 
V:1
 C2 A2 c2 | fe f4 | cBAEFD | C6 | CB,CDED | CB,CDED | B2 dcBA | G6 :: A2 c4 | BcdB G2 | %10
!p! (BA)(AG) G2 |!f! G2 B4 | ABcA C2 |!p! (AE)(EC) C2 |!f! C2 A2 c2 | fe f4 | EdcBED | C6 :| %18

